X: 2148
T: Aughacashel, The
R: reel
M: 4/4
K: Gmajor
|:DEGA BG ~G2|AGBG AGEG|DEGA (3B^cd ed|gedB A2 GE|
DEGA BG ~G2|AGBG AGEG|(3B^cd ed Bdge|dBAB G3 z:|
|:gB ~B2 GABd|eBdB ~G3 B|A2 GB AE ~E2|(3cBA (3BAG A2 (3B^cd|
~g3 a bgaf|gedB AEGE|DEGA (3B^cd ge|dBAB ~G3 z:|

